X: 23
T: Red Haired Lass
M: 4/4
L: 1/8
R: reel
K:G
"G"DGGF ~G2 BG|~G2 BG "C"AGEG|"G"DGGF GABd|"C"egdB "Am"cBAB|
"G"DGGF ~G2 BG|~G2 BG "C"AGEG|"G"DGGF GABd|"C"egdB c2 Bc||
"G"d2 gd edgd|~d2 gd BGBc|d2 gd "C"edef|"G"gedB "C"c2 Bc|
"G"d2 gd edgd|~d2 gd BGAB|"Am"~c2 cA"G"~B3 A|GABd "C"egdB||


